X:70
T:Grand Slow March for Raisin Band,A. JGi.070
O:Tealby,Lincolnshire
M:C|
L:1/8
Q:1/4=120
S:Joshua Gibbons MS,1823,Tealby,Lincs.
R:march
Z:VMP/R.Greig, 2009
K:C
(3gab|c’4g2^fg|a4e3d/e/|f2e2d2 ef|g2f2e2 fg|
a2 g/f/e/f/ g2G2|c4 edcd|e4 gfef|f>c’c’>c’ c’>ba>g|
c’>gc’>c’ c’>ba>g|c’2g2f2e2|d2G>GB2d>d|gg>gg:|
|:g4fedc|f4edcB|c2e>cg2e>c|d2d>dd2e>f|g2a/g/ fedc|c>c’g>c’ e2d2|
c>eg>e g>eg>e|e>dc>d e2d2|c>eg>e g>eg>e|e>gc’>be2d2|cc>cc:|

